X: 1
T:Shandy Hall
R:jig
M:6/8
L:1/8
K:G
d|:"G" d3 dcB|"D"cBA "G"B2G|"Bm"d3 def|"Em"gfe "D7"def|
"G"g3 dcB|"D"cBA "G"B2G|"Am" cdc "G"B2G|"D7"ABA "G"G2d:|
|:"D"A2D ABc|"G"B2D GBd|"C"e2c "G"dcB|"Am"A3 c2B|
"D"A2D ABc|"G"B2D GBd|"C"e3 "Am"c3|"D7"ABA "G"G2 d:|
